src/assets/images/logo.svg

<svg width="320" height="323" viewBox="0 0 320 323" fill="none" xmlns="http://www.w3.org/2000/svg">
<g clip-path="url(#clip0_143_460)">
<path fill-rule="evenodd" clip-rule="evenodd" d="M132.93 31.11C132.93 48.29 119 62.22 101.82 62.22C84.64 62.22 70.71 48.29 70.71 31.11C70.71 13.93 84.63 0 101.82 0C119.01 0 132.93 13.93 132.93 31.11ZM114.02 162.75C107.83 165.03 100.87 161.86 99.41 155.43C96.09 140.84 96.35 125.6 100.23 111.03C105.15 92.59 115.64 76.12 130.27 63.87C144.9 51.62 162.96 44.19 181.98 42.59C197.01 41.33 212.06 43.76 225.83 49.59C231.91 52.16 233.8 59.57 230.47 65.26C227.14 70.96 219.83 72.76 213.64 70.46C204.21 66.96 194.09 65.55 183.97 66.4C169.86 67.58 156.46 73.1 145.61 82.18C134.75 91.27 126.97 103.49 123.32 117.17C120.7 126.98 120.31 137.19 122.09 147.09C123.26 153.59 120.2 160.46 114.01 162.74L114.02 162.75ZM181.41 148.2C175.02 146.55 169.02 151.29 168.21 157.84C167.4 164.39 172.11 170.26 178.42 172.19C188.03 175.13 196.93 180.16 204.46 186.98C214.95 196.49 222.25 209 225.36 222.81C228.47 236.62 227.24 251.06 221.83 264.14C217.95 273.52 212.07 281.88 204.64 288.66C199.76 293.11 198.02 300.43 201.56 306C205.1 311.57 212.55 313.28 217.62 309.05C229.12 299.47 238.17 287.21 243.93 273.27C251.22 255.63 252.88 236.18 248.69 217.56C244.5 198.94 234.66 182.07 220.52 169.26C209.34 159.13 195.91 151.93 181.42 148.2H181.41ZM157.83 245.23C163.34 241.59 163.85 233.97 159.53 228.97C155.21 223.98 147.7 223.54 142.04 226.92C133.41 232.08 123.71 235.31 113.61 236.32C99.52 237.73 85.34 234.75 73.01 227.8C60.68 220.84 50.8 210.25 44.71 197.47C40.35 188.3 38.09 178.33 38.05 168.28C38.02 161.68 33.76 155.48 27.25 154.37C20.74 153.26 14.48 157.64 14.22 164.24C13.62 179.19 16.65 194.13 23.13 207.75C31.33 224.98 44.65 239.26 61.27 248.64C77.89 258.01 97 262.03 115.99 260.13C131 258.63 145.35 253.49 157.83 245.24V245.23ZM31.11 322.41C48.29 322.41 62.22 308.48 62.22 291.3C62.22 274.12 48.29 260.19 31.11 260.19C13.93 260.19 0 274.12 0 291.3C0 308.48 13.93 322.41 31.11 322.41ZM288.48 224.84C305.66 224.84 319.59 210.91 319.59 193.73C319.59 176.55 305.66 162.62 288.48 162.62C271.3 162.62 257.37 176.55 257.37 193.73C257.37 210.91 271.3 224.84 288.48 224.84Z" fill="#ED500E"/>
</g>
<defs>
<clipPath id="clip0_143_460">
<rect width="319.59" height="322.41" fill="white"/>
</clipPath>
</defs>
</svg>

<?xml version="1.0" encoding="UTF-8"?>
<svg id="Layer_1" data-name="Layer 1" xmlns="http://www.w3.org/2000/svg" xmlns:xlink="http://www.w3.org/1999/xlink" version="1.1" viewBox="0 0 1724 323">
  <defs>
    <style>
      .cls-1 {
        clip-path: url(#clippath);
      }

      .cls-2 {
        fill: none;
      }

      .cls-2, .cls-3, .cls-4 {
        stroke-width: 0px;
      }

      .cls-3 {
        fill: #212121;
      }

      .cls-4 {
        fill: #ed500d;
        fill-rule: evenodd;
      }
    </style>
    <clipPath id="clippath">
      <rect class="cls-2" y="0" width="1724" height="322.4"/>
    </clipPath>
  </defs>
  <g class="cls-1">
    <g>
      <path class="cls-3" d="M366.9,65.3c0-3.3,1.2-6.1,3.5-8.3,2.4-2.3,5.3-3.5,8.5-3.5h98.1c0-.1.1-.1.1-.1,3.3,0,6.1,1.2,8.4,3.6,2.4,2.3,3.6,5.1,3.6,8.4s-1.2,6.1-3.6,8.5c-2.3,2.3-5.1,3.5-8.4,3.5h-86.2c0,.1.1,43.9.1,43.9l62.7-.6h1.3c3.2,0,5.8,1.3,7.8,3.9,2,2.6,3,5.1,3,7.5,0,3.5-1.1,6.5-3.4,9-2.2,2.5-5.1,3.7-8.7,3.7l-62.7.6v70c.1,0,.1.2.1.2,0,3.2-1.2,6-3.6,8.3-2.3,2.3-5.1,3.5-8.4,3.5s-6.1-1.2-8.5-3.5c-2.3-2.3-3.5-5.1-3.5-8.3h0c0-.1-.4-150.4-.4-150.4Z"/>
      <path class="cls-3" d="M570.7,94.6c10.7,0,20.5,2.6,29.4,7.9,8.9,5.3,16,12.4,21.4,21.4,5.5,8.9,8.2,18.8,8.2,29.7s-.1,4.5-.4,6.9c-.3,3-1.7,5.5-4.1,7.6-2.3,2-5,3-7.9,3h-84.1c1.4,5.9,3.9,11.3,7.7,16.4,3.8,5.1,8.3,9.1,13.7,12.3,5.5,3.1,11.4,4.7,17.8,4.7s13.1-1.7,18.5-5.1c5.5-3.4,9.7-7.3,12.8-11.7,1-1.5,2.4-2.8,4.3-3.9,2-1,3.9-1.6,5.7-1.6,3.3,0,6.1,1.2,8.4,3.6,2.4,2.4,3.6,5.3,3.6,8.5s-.7,4.9-2.2,6.9c-5,7.3-11.8,13.6-20.6,19-8.7,5.3-18.7,7.9-30.2,7.9s-17.8-1.8-25.8-5.4c-7.9-3.6-14.7-8.5-20.6-14.8-5.9-6.3-10.4-13.4-13.7-21.5-3.2-8.2-4.8-16.8-4.8-25.9s1.6-17,4.8-24.9c3.2-7.9,7.7-15,13.4-21.2,5.8-6.2,12.5-11,20.1-14.6,7.6-3.6,15.8-5.4,24.5-5.4ZM604.8,147.1c-1.5-7.9-5.5-14.6-11.8-20.1-6.3-5.5-13.8-8.3-22.4-8.3s-16.5,2.8-23.2,8.5c-6.7,5.7-11.2,12.4-13.5,20h70.9Z"/>
      <path class="cls-3" d="M709.4,94.6c10.7,0,20.5,2.6,29.4,7.9,8.9,5.3,16,12.4,21.4,21.4,5.5,8.9,8.2,18.8,8.2,29.7s-.1,4.5-.4,6.9c-.3,3-1.7,5.5-4.1,7.6-2.3,2-5,3-7.9,3h-84.1c1.4,5.9,3.9,11.3,7.7,16.4,3.8,5.1,8.3,9.1,13.7,12.3,5.5,3.1,11.4,4.7,17.8,4.7s13.1-1.7,18.5-5.1c5.5-3.4,9.7-7.3,12.8-11.7,1-1.5,2.4-2.8,4.3-3.9,2-1,3.9-1.6,5.7-1.6,3.3,0,6.1,1.2,8.4,3.6,2.4,2.4,3.6,5.3,3.6,8.5s-.7,4.9-2.2,6.9c-5,7.3-11.8,13.6-20.6,19-8.7,5.3-18.7,7.9-30.2,7.9s-17.8-1.8-25.8-5.4c-7.9-3.6-14.7-8.5-20.6-14.8-5.9-6.3-10.4-13.4-13.7-21.5-3.2-8.2-4.8-16.8-4.8-25.9s1.6-17,4.8-24.9c3.2-7.9,7.7-15,13.4-21.2,5.8-6.2,12.5-11,20.1-14.6,7.6-3.6,15.8-5.4,24.6-5.4ZM743.5,147.1c-1.5-7.9-5.5-14.6-11.8-20.1-6.3-5.5-13.8-8.3-22.4-8.3s-16.5,2.8-23.2,8.5c-6.7,5.7-11.2,12.4-13.5,20h70.9Z"/>
      <path class="cls-3" d="M784,161.3c0-9.1,1.7-17.9,5.1-26.5,3.4-8.6,8.3-16.2,14.9-22.7,5.9-5.7,12.6-10.1,20.2-13.2,7.6-3.1,15.5-4.7,23.7-4.7s15.8,1.8,22.3,5.3c6.5,3.5,12.3,8.3,17.4,14.3v-50.7c0-3.3,1.2-6.1,3.5-8.4,2.4-2.4,5.3-3.6,8.5-3.6s6.1,1.2,8.4,3.6c2.4,2.3,3.6,5.1,3.6,8.4v153.7c0,3.3-1.2,6.1-3.6,8.5-2.3,2.3-5.1,3.5-8.4,3.5s-5.8-1.2-7.5-3.5c-1.6-2.4-2.6-5.3-3.1-8.5l-1.4-9.7c-4.6,6.6-10.6,11.8-18.2,15.5-7.5,3.8-14.9,5.7-22.4,5.7s-17.4-1.8-25.2-5.4c-7.6-3.6-14.3-8.5-20-14.7-5.7-6.3-10.1-13.4-13.2-21.4-3.1-8-4.7-16.5-4.7-25.4ZM846.8,204.1c5.2,0,10.4-1.2,15.5-3.5,5.1-2.3,9.5-5.5,13.1-9.4,3.6-4,6.4-8.7,8.3-14.1,2-5.4,3-10.9,3-16.5s-1.7-14.8-5.1-21.3c-3.4-6.5-8-11.7-14-15.6-5.9-3.9-12.6-5.9-20.3-5.9s-14.3,2.1-20.3,6.3c-5.9,4.1-10.6,9.5-14.1,16.1-3.4,6.6-5.1,13.6-5.1,21.1s1.7,14.5,5.1,21.1c3.4,6.5,8,11.8,13.8,15.8,5.9,4,12.6,6,20,6Z"/>
      <path class="cls-3" d="M1069.3,58.2c.9-2,2.4-3.7,4.5-5.1,2.2-1.4,4.4-2.2,6.6-2.2s4.3.7,6.5,2.2c2.2,1.4,3.8,3,4.6,5.1l66.2,153.6c.7,1.6,1.1,3.2,1.1,4.9,0,3.3-1.2,6.1-3.6,8.5-2.3,2.3-5.1,3.5-8.4,3.5s-4.4-.7-6.6-2.2c-2.2-1.4-3.7-3.2-4.6-5.2l-20.6-47.8-68.6-1-21.1,48.9c-.8,2-2.3,3.7-4.5,5.2-2.2,1.5-4.4,2.3-6.6,2.3-3.3,0-6.1-1.2-8.5-3.5-2.3-2.4-3.5-5.3-3.5-8.5s.4-3.3,1.1-4.9l66.1-153.8ZM1080.4,93.4l-23.7,55.2,47.8.6-24.1-55.8Z"/>
      <path class="cls-3" d="M1246,61.3c0-3.1,1.3-5.7,3.8-7.6,2.6-1.9,5.1-2.9,7.5-2.9,3.4,0,6.3,1.2,8.9,3.2,2.6,2.1,3.8,4.9,3.8,8.4v67.6c.1,0,90.1-.1,90.1-.1V62.5c-.1-3.2,1-5.9,3.4-8.2,2.5-2.3,5.4-3.5,8.7-3.5s6.1,1.1,8.5,3.4c2.4,2.2,3.6,5,3.6,8.3v153c-.1,3.2-1.3,6-3.7,8.3-2.3,2.2-5.1,3.4-8.4,3.4s-6.1-1.1-8.6-3.2c-2.3-2.2-3.5-5-3.5-8.2v-61.4h-89.9c0,.1.1,61.5.1,61.5,0,3.3-1.2,6.1-3.5,8.3-2.3,2.2-5.2,3.4-8.5,3.4s-6.1-1.1-8.5-3.4c-2.3-2.3-3.5-5.1-3.5-8.3,0-25.5-.2-51-.2-76.5,0-25.6,0-51.1-.1-76.7v-1.3Z"/>
      <path class="cls-3" d="M1465.9,94.6c10.7,0,20.5,2.6,29.4,7.9,8.9,5.3,16,12.4,21.4,21.4,5.5,8.9,8.2,18.8,8.2,29.7s-.1,4.5-.4,6.9c-.3,3-1.7,5.5-4.1,7.6-2.3,2-5,3-7.9,3h-84.1c1.4,5.9,3.9,11.3,7.7,16.4,3.8,5.1,8.3,9.1,13.7,12.3,5.5,3.1,11.4,4.7,17.8,4.7s13.1-1.7,18.5-5.1c5.4-3.4,9.7-7.3,12.8-11.7,1-1.5,2.4-2.8,4.3-3.9,2-1,3.9-1.6,5.7-1.6,3.3,0,6.1,1.2,8.4,3.6,2.4,2.4,3.6,5.3,3.6,8.5s-.7,4.9-2.2,6.9c-5,7.3-11.8,13.6-20.6,19-8.7,5.3-18.7,7.9-30.2,7.9s-17.8-1.8-25.8-5.4c-7.9-3.6-14.7-8.5-20.6-14.8-5.8-6.3-10.4-13.4-13.7-21.5-3.2-8.2-4.8-16.8-4.8-25.9s1.6-17,4.8-24.9c3.2-7.9,7.7-15,13.3-21.2,5.8-6.2,12.5-11,20.1-14.6,7.6-3.6,15.8-5.4,24.6-5.4ZM1500.1,147.1c-1.5-7.9-5.5-14.6-11.8-20.1-6.3-5.5-13.8-8.3-22.4-8.3s-16.5,2.8-23.2,8.5c-6.7,5.7-11.1,12.4-13.5,20h70.9Z"/>
      <path class="cls-3" d="M1557.4,50.4c3.9,0,6.9,1.3,9.3,3.9,2.3,2.5,3.5,5.2,3.4,8.2v155c0,3.2-1.3,5.8-3.8,7.8-2.5,1.9-5,2.9-7.5,2.9s-6.5-1.1-9-3.4c-2.5-2.2-3.7-5.1-3.7-8.7V62.5c0-3,1.1-5.8,3.2-8.3,2.2-2.5,5-3.7,8.2-3.7Z"/>
      <path class="cls-3" d="M1723.7,161.5c0,9.1-1.7,17.9-5.1,26.5-3.3,8.6-8.3,16.2-14.9,22.7-5.9,5.7-12.6,10.1-20.2,13.2s-15.5,4.7-23.7,4.7-15.8-1.8-22.3-5.3c-6.4-3.5-12.2-8.3-17.5-14.3v50.7c0,3.3-1.2,6.1-3.6,8.4-2.3,2.4-5.1,3.6-8.4,3.6s-6.1-1.2-8.6-3.6c-2.3-2.3-3.5-5.1-3.5-8.4V106c0-3.3,1.2-6.1,3.5-8.4,2.4-2.4,5.3-3.6,8.6-3.6s5.7,1.2,7.3,3.6c1.7,2.3,2.8,5.1,3.2,8.4l1.4,9.7c4.6-6.6,10.6-11.8,18.1-15.5,7.5-3.8,15.1-5.7,22.5-5.7s17.4,1.8,25,5.4c7.7,3.6,14.4,8.5,20.1,14.8,5.7,6.2,10.1,13.3,13.2,21.3,3.1,8,4.7,16.5,4.7,25.4ZM1660.9,118.7c-5.2,0-10.4,1.2-15.5,3.5-5.1,2.2-9.5,5.4-13.1,9.4-3.6,3.9-6.4,8.6-8.4,14.1-1.9,5.4-2.9,10.9-2.9,16.5s1.7,14.8,5.1,21.3,8,11.7,14,15.6c5.9,3.9,12.7,5.9,20.3,5.9s14.4-2,20.3-6.1c5.9-4.2,10.6-9.5,14-16.1,3.5-6.7,5.2-13.7,5.2-21.2s-1.7-14.6-5.1-21.1c-3.4-6.5-8-11.8-13.8-15.8-5.8-4-12.5-6-20-6Z"/>
      <path class="cls-4" d="M132.9,31.1c0,17.2-13.9,31.1-31.1,31.1s-31.1-13.9-31.1-31.1S84.6,0,101.8,0s31.1,13.9,31.1,31.1ZM114,162.7c-6.2,2.3-13.1-.9-14.6-7.3-3.3-14.6-3.1-29.8.8-44.4,4.9-18.4,15.4-34.9,30-47.2,14.6-12.2,32.7-19.7,51.7-21.3,15-1.3,30.1,1.2,43.9,7,6.1,2.6,8,10,4.6,15.7-3.3,5.7-10.6,7.5-16.8,5.2-9.4-3.5-19.6-4.9-29.7-4.1-14.1,1.2-27.5,6.7-38.4,15.8-10.9,9.1-18.6,21.3-22.3,35-2.6,9.8-3,20-1.2,29.9,1.2,6.5-1.9,13.4-8.1,15.6ZM181.4,148.2c-6.4-1.6-12.4,3.1-13.2,9.6-.8,6.6,3.9,12.4,10.2,14.4,9.6,2.9,18.5,8,26,14.8,10.5,9.5,17.8,22,20.9,35.8,3.1,13.8,1.9,28.2-3.5,41.3-3.9,9.4-9.8,17.7-17.2,24.5-4.9,4.4-6.6,11.8-3.1,17.3,3.5,5.6,11,7.3,16.1,3.1,11.5-9.6,20.5-21.8,26.3-35.8,7.3-17.6,9-37.1,4.8-55.7-4.2-18.6-14-35.5-28.2-48.3-11.2-10.1-24.6-17.3-39.1-21.1ZM157.8,245.2c5.5-3.6,6-11.3,1.7-16.3-4.3-5-11.8-5.4-17.5-2-8.6,5.2-18.3,8.4-28.4,9.4-14.1,1.4-28.3-1.6-40.6-8.5-12.3-7-22.2-17.5-28.3-30.3-4.4-9.2-6.6-19.1-6.7-29.2,0-6.6-4.3-12.8-10.8-13.9-6.5-1.1-12.8,3.3-13,9.9-.6,15,2.4,29.9,8.9,43.5,8.2,17.2,21.5,31.5,38.1,40.9,16.6,9.4,35.7,13.4,54.7,11.5,15-1.5,29.4-6.6,41.8-14.9ZM31.1,322.4c17.2,0,31.1-13.9,31.1-31.1s-13.9-31.1-31.1-31.1S0,274.1,0,291.3s13.9,31.1,31.1,31.1ZM288.5,224.8c17.2,0,31.1-13.9,31.1-31.1s-13.9-31.1-31.1-31.1-31.1,13.9-31.1,31.1,13.9,31.1,31.1,31.1Z"/>
    </g>
  </g>
</svg>
